!!!!SEGMENT: Any1006e-Missa_Sine_nomine-Agnus--Jena_21.krn
!!!id: Any1006e
!!!SMS: Jena 21
!!!AGN: Mass; Agnus
!!!voices: 4
!!!OPR: Missa Sine nomine (Jena 21)
!!!COM: Anonymous
!!!OTL: Agnus
**kern	**kern	**kern	**kern
*part4	*part3	*part2	*part1
*staff4	*staff3	*staff2	*staff1
*I"Bassus	*I"Tenor	*I"Altus	*I"Superius
*I'B	*I'T	*I'A	*I'S
*clefF4	*clefGv2	*clefGv2	*clefG2
*k[b-]	*k[b-]	*k[b-]	*k[b-]
*F:	*F:	*F:	*F:
*M2/1	*M2/1	*M2/1	*M2/1
*met(C|)	*met(C|)	*met(C|)	*met(C|)
=1	=1	=1	=1
!!section: Agnus Dei I
!!!OMD: Agnus Dei I
0r	0G	0d	0g
=2	=2	=2	=2
0r	1A	1c	1f
.	1G	1d	[1g
=3	=3	=3	=3
0r	0B-y	1.G	2g]
.	.	.	2f
.	.	.	1d
.	.	2F	.
=4	=4	=4	=4
0r	1c	1E	1e
.	1d	1D	1f
=5	=5	=5	=5
0G	2r	1d	1B-y
.	1d	.	.
.	.	4B-y	2r
.	.	4c	.
.	2B-y	4d	[2b-y
.	.	4e	.
=6	=6	=6	=6
1F	1c	1f	2b-]
.	.	.	2a
[1G	1B-y	2.d	[1b-y
.	.	4B-y	.
=7	=7	=7	=7
2G]	0d	2B-y	2b-]
2F	.	2.f	4a
.	.	.	4g
1D	.	.	2f
.	.	4e	.
.	.	2f	[2b-y
=8	=8	=8	=8
1E	0c	1g	2b-]
.	.	.	4a
.	.	.	4g
1F	.	1f	1a
=9	=9	=9	=9
1BB-y	1B-y	0d	1b-y
[1D	1A	.	2r
.	.	.	[2f
=10	=10	=10	=10
1D]	1B-y	1r	2f]
.	.	.	4e
.	.	.	4d
1C	1c	1G	1e
=11	=11	=11	=11
1.D	1A	1F	1f
.	1d	4F	1b-y
.	.	4G	.
2C	.	4A	.
.	.	4B-y	.
=12	=12	=12	=12
1AA	1c	1c	1a
1BB-y	1B-y	1d	1g
=13	=13	=13	=13
1C	0A	1e-i	1g
1D	.	1d	1f#i
=14	=14	=14	=14
1.GG	[0G	1.B-y	1.g
2AA	.	2c	2f
=15	=15	=15	=15
2BB-y	1G]	2d	2d
2C	.	1c	1e
2AA	1A	.	.
2D	.	2A	[2f
=16	=16	=16	=16
2BB-y	1B-y	2d	2f]
2E-i	.	2B-y	1g
2C	1c	2e-i	.
[2F	.	2c	[2a
=17	=17	=17	=17
2F]	1.d	2f	2a]
2G	.	2e	2b-y
2F	.	2f	2a
2G	[2d	2d	[2b-y
=18	=18	=18	=18
2D	2d]	1f	2b-]
2F	2c	.	1a
1G	1B-y	1d	.
.	.	.	2g
=19	=19	=19	=19
1D	1.A	1d	0a
1r	.	2c	.
.	[2F	[2A	.
=20	=20	=20	=20
0r	2F]	2A]	1a
.	4E	1d	.
.	4D	.	.
.	1E	.	1g
.	.	2c#i	.
=21	=21	=21	=21
0r	1D	2d	2f
.	.	2.D	1a
.	2r	.	.
.	.	4E	.
.	[2d	4F	4g
.	.	4G	4f
=22	=22	=22	=22
1r	2d]	1A	1e
.	2c	.	.
2.D	2B-y	1r	1d
.	[2d	.	.
4E	.	.	.
=23	=23	=23	=23
2F	2d]	0r	2r
1G	4c	.	2.dd
.	4B-y	.	.
.	1A	.	.
.	.	.	4cc
2F#i	.	.	2cc
=24	=24	=24	=24
2G	1G	1r	2b-y
2.GG	.	.	1dd
.	1r	2r	.
4AA	.	.	.
4BB-y	.	[2g	4cc
4C	.	.	4b-y
=25	=25	=25	=25
1D	0r	2g]	1a
.	.	2f	.
1r	.	2e	2.g
.	.	[2g	.
.	.	.	4a
=26	=26	=26	=26
0r	0r	2g]	2b-y
.	.	4f	1cc
.	.	4e	.
.	.	1d	.
.	.	.	2b-y
=27	=27	=27	=27
0r	0r	2.c	2a
.	.	.	1cc
.	.	4d	.
.	.	2e	.
.	.	[2f	4b-y
.	.	.	4a
=28	=28	=28	=28
0r	0r	2f]	1g
.	.	2e	.
.	.	2d	2.f
.	.	[2f	.
.	.	.	4g
=29	=29	=29	=29
1r	0r	2f]	2a
.	.	4e	1b-y
.	.	4d	.
1F	.	1c	.
.	.	.	2a
=30	=30	=30	=30
1.G	0d	0B-y	1b-y
.	.	.	1r
4F	.	.	.
4E	.	.	.
=31	=31	=31	=31
2D	2d	1d	2.b-y
1G	1B-y	.	.
.	.	.	4a
.	.	1e	2b-y
2C	2G	.	[2cc
=32	=32	=32	=32
1F	1A	1c	2cc]
.	.	.	1a
1D	1F	1d	.
.	.	.	[2b-y
=33	=33	=33	=33
1E	1G	1B-y	2b-]
.	.	.	1g
1C	1E	1c	.
.	.	.	[2a
=34	=34	=34	=34
1D	1F	1A	2a]
.	.	.	1f
1BB-y	1D	1B-y	.
.	.	.	[2g
=35	=35	=35	=35
1C	2E	1G	2g]
.	2C	.	2.e
1AA	1c	2A	.
.	.	.	4f
.	.	2c	[2a
=36	=36	=36	=36
2BB-y	2d	2B-y	2a]
2GG	2B-y	1.d	1g
1D	1A	.	.
.	.	.	2f#i
=37	=37	=37	=37
0GGl	0Gl	0dl	0gl
=38||	=38||	=38||	=38||
*M2/1	*M2/1	*M2/1	*M2/1
*met(C|)	*met(C|)	*met(C|)	*met(C|)
!!section: Agnus Dei II
!!!OMD: Agnus Dei II
1D	1D	0r	0r
2C	2E	.	.
[2D	[2F	.	.
=39	=39	=39	=39
2D]	2F]	0r	0r
4C	4E	.	.
4BB-y	4D	.	.
2C	2E	.	.
2BB-y	[2D	.	.
=40	=40	=40	=40
1GG	2D]	0r	0r
.	1G	.	.
1AA	.	.	.
.	2F#i	.	.
=41	=41	=41	=41
2GG	1G	0r	0r
2G	.	.	.
2F	2A	.	.
[2G	[2B-y	.	.
=42	=42	=42	=42
2G]	2B-]	0r	0r
4F	4A	.	.
4E	4G	.	.
2F	2A	.	.
2E	[2G	.	.
=43	=43	=43	=43
1C	2G]	0r	0r
.	1c	.	.
1D	.	.	.
.	2BnXi	.	.
=44	=44	=44	=44
4C	2.c	0r	0r
4BB-y	.	.	.
4AA	.	.	.
4GG	4B-y	.	.
[1D	4A	.	.
.	4G	.	.
.	2B-y	.	.
=45	=45	=45	=45
2D]	2A	0r	0r
2BB-y	1G	.	.
1AA	.	.	.
.	2F#i	.	.
=46	=46	=46	=46
1GG	1G	1d	1d
1r	1r	2c	2e
.	.	[2d	[2f
=47	=47	=47	=47
0r	0r	2d]	2f]
.	.	4c	4e
.	.	4B-y	4d
.	.	2c	2e
.	.	2B-y	[2d
=48	=48	=48	=48
0r	0r	1G	2d]
.	.	.	1g
.	.	1A	.
.	.	.	2f#i
=49	=49	=49	=49
0r	0r	2G	1g
.	.	2g	.
.	.	2f	2a
.	.	[2g	[2b-y
=50	=50	=50	=50
0r	0r	2g]	2b-]
.	.	4f	4a
.	.	4e	4g
.	.	2f	2a
.	.	2e	[2g
=51	=51	=51	=51
0r	0r	1c	2g]
.	.	.	1cc
.	.	1d	.
.	.	.	2bnXi
=52	=52	=52	=52
0r	0r	4c	2.cc
.	.	4B-y	.
.	.	4A	.
.	.	4G	4b-y
.	.	[1d	4a
.	.	.	4g
.	.	.	2b-y
=53	=53	=53	=53
0r	0r	2d]	2a
.	.	2B-y	1g
.	.	1A	.
.	.	.	2f#i
=54	=54	=54	=54
0r	2r	1G	0g
.	2.G	.	.
.	.	1r	.
.	4A	.	.
.	4B-y	.	.
.	4c	.	.
=55	=55	=55	=55
1GG	1.d	0r	0r
4GG	.	.	.
4AA	.	.	.
4BB-y	4c	.	.
4C	4B-y	.	.
=56	=56	=56	=56
1.D	1A	0r	0r
.	1B-y	.	.
2C	.	.	.
=57	=57	=57	=57
1AA	1c	0r	0r
1BB-y	2B-y	.	.
.	[2G	.	.
=58	=58	=58	=58
1C	2G]	0r	0r
.	4F	.	.
.	4E	.	.
2BB-y	2D	.	.
2D	2F	.	.
=59	=59	=59	=59
4E-i	2G	0r	0r
4D	.	.	.
4C	1B-y	.	.
4BB-y	.	.	.
1C	.	.	.
.	2A	.	.
=60	=60	=60	=60
1BB-y	1B-y	2r	2r
.	.	1d	1b-y
1r	1r	.	.
.	.	4c	4a
.	.	4B-y	4g
=61	=61	=61	=61
0r	0r	1c	1a
.	.	2d	2f
.	.	2e-i	[2g
=62	=62	=62	=62
1r	1r	1c	4g]
.	.	.	4f
.	.	.	2e
2r	2r	1B-y	1d
[2G	[2B-y	.	.
=63	=63	=63	=63
2G]	2B-]	0r	0r
4F	4A	.	.
4E	4G	.	.
1F	1A	.	.
=64	=64	=64	=64
2D	2F	0r	0r
2E-i	1G	.	.
1C	.	.	.
.	4F	.	.
.	4E	.	.
=65	=65	=65	=65
2BB-y	1D	2r	0r
1D	.	1B-y	.
.	1r	.	.
4C	.	4A	.
4BB-y	.	4G	.
=66	=66	=66	=66
2C	0r	2A	0r
2BB-y	.	1G	.
1AA	.	.	.
.	.	2F#i	.
=67	=67	=67	=67
1GG	2r	1G	2.b-y
.	2G	.	.
.	.	.	4a
1r	2.B-y	1r	2.f
.	4A	.	4g
=68	=68	=68	=68
0r	2.F	0r	2.a
.	4G	.	4g
.	2.A	.	2.e
.	4G	.	4f
=69	=69	=69	=69
0r	2.E	0r	2.g
.	4F	.	4f
.	2G	.	2d
.	2F	.	[2f
=70	=70	=70	=70
1r	2D	0r	2f]
.	1d	.	4e
.	.	.	4d
[1A	.	.	1e
.	2c#i	.	.
=71	=71	=71	=71
2A]	1d	2.D	1d
1F	.	.	.
.	.	4E	.
.	1r	4F	1r
.	.	4G	.
4E	.	4A	.
4D	.	4B-y	.
=72	=72	=72	=72
1.C	0r	2.A	0r
.	.	8GL	.
.	.	8FJ	.
.	.	4E	.
.	.	4D	.
[2D	.	[2B-y	.
=73	=73	=73	=73
2D]	0r	4B-]	0r
.	.	4A	.
4C	.	1G	.
4BB-y	.	.	.
1AA	.	.	.
.	.	2F#i	.
=74	=74	=74	=74
1GG	1B-y	1G	2.d
.	.	.	4e
2r	2A	1D	4f
.	.	.	4g
[2D	[2F	.	4a
.	.	.	4b-y
=75	=75	=75	=75
4D]	4F]	1r	2.a
4E	4G	.	.
2F	4A	.	.
.	4B-y	.	4g
2C	2c	2.G	4e
.	.	.	4d
[2G	2B-y	.	[2b-y
.	.	4A	.
=76	=76	=76	=76
4G]	1G	2B-y	4b-]
4D	.	.	4a
2E	.	2c	1g
1D	1A	1d	.
.	.	.	2f#i
=77	=77	=77	=77
0GGl	0Gl	0dl	0gl
=78||	=78||	=78||	=78||
*M2/1	*M2/1	*M2/1	*M2/1
*met(C|)	*met(C|)	*met(C|)	*met(C|)
!!section: Agnus Dei III
!!!OMD: Agnus Dei III
0r	0r	0D	0r
=79	=79	=79	=79
0r	0r	1E	1r
.	.	2.D	[1d
.	.	4E	.
=80	=80	=80	=80
0r	0r	2F	1d]
.	.	1G	.
.	.	.	1e
.	.	2A	.
=81	=81	=81	=81
0r	0r	1B-y	2.d
.	.	.	4e
.	.	2A	2f
.	.	[2G	[2g
=82	=82	=82	=82
0r	1r	4G]	2g]
.	.	4E	.
.	.	2F	2a
.	[1G	1G	[1b-y
=83	=83	=83	=83
0r	1G]	1B-y	2b-]
.	.	.	1g
.	1A	1c	.
.	.	.	2f#i
=84	=84	=84	=84
0GG	1G	1.d	1g
.	1B-y	.	2r
.	.	2c	2g
=85	=85	=85	=85
1AA	1c	1A	1cc
1GG	[1d	[1B-y	[1b-y
=86	=86	=86	=86
1BB-y	1d]	1B-]	2b-]
.	.	.	1g
1C	1c	1e-i	.
.	.	.	4f
.	.	.	4e-i
=87	=87	=87	=87
[0D	0A	1.d	1.f
.	.	2e	2g
=88	=88	=88	=88
1D]	1d	2f	2a
.	.	2F	2b-y
1E-i	4c	1G	1cc
.	4B-y	.	.
.	4A	.	.
.	4G	.	.
=89	=89	=89	=89
2D	2F	2A	1dd
2BB-y	1B-y	2B-y	.
1F	.	1c	1cc
.	2A	.	.
=90	=90	=90	=90
1r	1B-y	2.d	2.f
.	.	4e	4g
1F	1A	1f	1a
=91	=91	=91	=91
1G	1B-y	2r	1d
.	.	2d	.
1C	1c	1e	[1g
=92	=92	=92	=92
1D	0A	0d	1g]
1D	.	.	1f#i
=93	=93	=93	=93
2.GG	[0G	2.B-y	0g
4AA	.	4c	.
2BB-y	.	2d	.
[2C	.	[2e-X	.
=94	=94	=94	=94
2C]	0G_	2e-]	2r
2BB-y	.	2d	1g
1C	.	1c	.
.	.	.	4f
.	.	.	4e
=95	=95	=95	=95
[0GG	0G_	2.B-y	2d
.	.	.	2e
.	.	4c	.
.	.	2d	2d
.	.	2e-i	[2g
=96	=96	=96	=96
0GG]	0G]	2d	2g]
.	.	1g	4f
.	.	.	4e-i
.	.	.	2e-i
.	.	4f	4d
.	.	4e-i	4c
=97	=97	=97	=97
0r	[0G	2e-i	2B-y
.	.	4d	2e-i
.	.	4c	.
.	.	2B-y	2d
.	.	[2e-i	[2g
=98	=98	=98	=98
1C	0G_	4e-]	4g]
.	.	4d	4f
.	.	1g	2e
2BB-y	.	.	2d
2C	.	4f	[2c
.	.	4e	.
=99	=99	=99	=99
1GG	0G]	1d	2c]
.	.	.	2BnXi
1C	.	1c	1c
=100	=100	=100	=100
2.BB-y	2.B-y	2r	2.d
.	.	1F	.
4C	4A	.	4e
2D	2F	.	2f
[2C	[2G	[2c	[2e
=101	=101	=101	=101
2C]	4G]	4c]	2e]
.	4F	4B-y	.
2D	4E	1.A	1d
.	4D	.	.
1AA	1E	.	.
.	.	.	2c#i
=102	=102	=102	=102
1BB-y	1D	1F	1.d
2GG	1G	2B-y	.
[2C	.	2G	[2e
=103	=103	=103	=103
2C]	1A	2c	4e]
.	.	.	4c
1D	.	2A	2.f
.	[1B-y	4d	.
.	.	4c	4d
[2E-i	.	4B-y	[2g
.	.	4A	.
=104	=104	=104	=104
4E-]	1B-]	2G	4g]
4D	.	.	4f
2BB-y	.	1F	2d
1C	1A	.	1e
.	.	2E	.
=105	=105	=105	=105
2.BB-y	0B-y	2F	2.d
.	.	1f	.
4C	.	.	4e
2D	.	.	2f
[2E	.	2e	[2g
=106	=106	=106	=106
2E]	1c	2c	4g]
.	.	.	4e
2F	.	1f	2.a
2D	2d	.	.
.	.	.	4f
2G	2B-y	2e	[2b-y
=107	=107	=107	=107
1F	1c	1f	2b-]
.	.	.	2a
2.G	1B-y	2.d	2.b-y
4F	.	4e	4a
=108	=108	=108	=108
2D	1.d	2f	2f
1G	.	2d	1b-y
.	.	2g	.
2A	[2c	2e	[2a
=109	=109	=109	=109
2F	2c]	2f	2a]
2G	2B-y	1.d	1g
1D	1A	.	.
.	.	.	2f#i
=110	=110	=110	=110
1r	0G	1B-y	0g
1G	.	1r	.
=111	=111	=111	=111
1F	0r	1d	0r
[1E-X	.	2c	.
.	.	[2B-y	.
=112	=112	=112	=112
1E-]	0r	2B-]	0r
.	.	4A	.
.	.	4G	.
1D	.	4F	.
.	.	4G	.
.	.	4A	.
.	.	4B-y	.
=113	=113	=113	=113
0C	0r	2c	0r
.	.	1B-y	.
.	.	2A	.
=114	=114	=114	=114
*M3/1	*M3/1	*M3/1	*M3/1
*met(C|3)	*met(C|3)	*met(C|3)	*met(C|3)
0BB-y	1.d	0B-y	0.r
.	2B-y	.	.
1r	1c	1r	.
=115	=115	=115	=115
0.r	1.B-y	0.r	1.dd
.	2G	.	2b-y
.	1F	.	1cc
=116	=116	=116	=116
0.r	1.G	0.r	1.b-y
.	2A	.	2a
.	2B-y	.	1g
.	2c	.	.
=117	=117	=117	=117
0.r	1.d	0.r	2f
.	.	.	2g
.	.	.	2a
.	2B-y	.	2b-y
.	1A	.	1cc
=118	=118	=118	=118
0.r	0B-y	0.r	0b-y
.	1c	.	1a
=119	=119	=119	=119
0.r	0B-y	1.f	0b-y
.	.	2d	.
.	1r	1e	1r
=120	=120	=120	=120
0G	0.r	1.d	0.r
.	.	2B-y	.
1F	.	1A	.
=121	=121	=121	=121
1.E-X	0.r	1.G	0.r
2D	.	4F	.
.	.	4E	.
2.BB-y	.	2.D	.
4C	.	4E	.
=122	=122	=122	=122
2D	0.r	4F	0.r
.	.	4G	.
1C	.	1A	.
2BB-y	.	1G	.
1AA	.	.	.
.	.	2F#i	.
=123	=123	=123	=123
0GG	1.B-y	0G	1.g
.	2A	.	2f
1r	2F	1r	2.d
.	2B-y	.	.
.	.	.	4e
=124	=124	=124	=124
0.r	2A	0.r	4f
.	.	.	4g
.	1c	.	1a
.	2B-y	.	1g
.	1A	.	.
.	.	.	2f#i
=125	=125	=125	=125
0r	1.G	0r	1g
.	.	.	1.b-y
.	2A	.	.
1G	2B-y	2d	.
.	2c	2e	2a
=126	=126	=126	=126
1.D	0d	2f	1.f
.	.	2g	.
.	.	0a	.
2E	.	.	2g
1F	1c	.	2a
.	.	.	2b-y
=127	=127	=127	=127
1C	1e-X	1g	1cc
2D	2d	2f	2b-y
1F	1c	1f	1a
2G	2B-y	2e	2g
=128	=128	=128	=128
1E	1G	1c	0g
0D	0A	0d	.
.	.	.	1f#i
=129	=129	=129	=129
0.GGl	0.Gl	0.dl	0.gl
==	==	==	==
*-	*-	*-	*-
!!!system-decoration: s1,s2,s3,s4
!!!RDF**kern: i = editorial accidental
!!!RDF**kern: l = terminal long
!!!ENC: Maura Sugg
!!!END: 2026/6/28
!!!EED: Benjamin Ory
!!!EEV: 2026/07/14
!!!YEC: Copyright 2026 Benjamin Ory, All Rights Reserved
!!!ONB: Translated from MusicXML on 2026/07/14
!!!verovio: header encoded
!!!header-left: Edited by Zoe Saunders (2010)\n
!!!header-right:
!!!header-center:
!!muse2ps: T^@{OPR}^u^@{ONM}{. }@{OTL}^C^@{COM}^i2I150v90,90,90,120c120z18l2770t130
